image/icon-P.svg

<svg width="32" height="32" viewBox="0 0 32 32" fill="none" xmlns="http://www.w3.org/2000/svg">
<path d="M31.9259 0H0.475342V32H31.9259V0Z" fill="white"/>
<g clip-path="url(#clip0_190_1616)">
<path d="M16.7402 8.20312C13.5555 8.20312 10.4081 10.3406 10.4081 13.8C10.4081 16 11.6373 17.25 12.3822 17.25C12.6895 17.25 12.8664 16.3875 12.8664 16.1438C12.8664 15.8531 12.1308 15.2344 12.1308 14.025C12.1308 11.5125 14.0304 9.73125 16.4888 9.73125C18.6026 9.73125 20.167 10.9406 20.167 13.1625C20.167 14.8219 19.5058 17.9344 17.3641 17.9344C16.5912 17.9344 15.9301 17.3719 15.9301 16.5656C15.9301 15.3844 16.7495 14.2406 16.7495 13.0219C16.7495 10.9531 13.8349 11.3281 13.8349 13.8281C13.8349 14.3531 13.9001 14.9344 14.1329 15.4125C13.7045 17.2688 12.8292 20.0344 12.8292 21.9469C12.8292 22.5375 12.913 23.1188 12.9689 23.7094C13.0744 23.8281 13.0216 23.8156 13.183 23.7563C14.7474 21.6 14.6916 21.1781 15.3993 18.3562C15.7811 19.0875 16.7681 19.4812 17.5503 19.4812C20.8468 19.4812 22.3274 16.2469 22.3274 13.3313C22.3274 10.2281 19.6641 8.20312 16.7402 8.20312Z" fill="black"/>
</g>
<defs>
<clipPath id="clip0_190_1616">
<rect width="11.9193" height="16" fill="white" transform="translate(10.4081 8)"/>
</clipPath>
</defs>
</svg>

<svg width="32" height="32" fill="none" xmlns="http://www.w3.org/2000/svg"><path d="M31.926 0H.476v32h31.45V0Z" fill="#fff"/><g clip-path="url(#a)"><path d="M16.74 8.203c-3.184 0-6.332 2.138-6.332 5.597 0 2.2 1.23 3.45 1.974 3.45.308 0 .484-.863.484-1.106 0-.29-.735-.91-.735-2.119 0-2.513 1.9-4.294 4.358-4.294 2.114 0 3.678 1.21 3.678 3.431 0 1.66-.661 4.772-2.803 4.772-.773 0-1.434-.562-1.434-1.368 0-1.182.82-2.325.82-3.544 0-2.069-2.915-1.694-2.915.806 0 .525.065 1.106.298 1.585-.428 1.856-1.304 4.621-1.304 6.534 0 .59.084 1.172.14 1.762.105.12.053.107.214.047 1.564-2.156 1.509-2.578 2.216-5.4.382.731 1.37 1.125 2.151 1.125 3.297 0 4.777-3.234 4.777-6.15 0-3.103-2.663-5.128-5.587-5.128Z" fill="#000"/></g><defs><clipPath id="a"><path fill="#fff" transform="translate(10.408 8)" d="M0 0h11.919v16H0z"/></clipPath></defs></svg>
